src/assets/icons/new-chat.svg

<svg width="24" height="24" viewBox="0 0 24 24" fill="none" xmlns="http://www.w3.org/2000/svg">
<!-- Rounded rectangle -->
<path d="M13.5833 5.75H7.75C6.64543 5.75 5.75 6.64543 5.75 7.75V17.75C5.75 18.8546 6.64543 19.75 7.75 19.75H17.75C18.8546 19.75 19.75 18.8546 19.75 17.75V11.9167" stroke="#314158" stroke-width="1.5" stroke-linecap="round" stroke-linejoin="round"/>
<!-- Pen -->
<path d="M14.75 6.75C14.75 5.92157 15.4216 5.25 16.25 5.25C17.0784 5.25 17.75 5.92157 17.75 6.75V14.2004C17.75 14.2329 17.7412 14.2647 17.7245 14.2925L16.25 16.75L14.7755 14.2925C14.7588 14.2647 14.75 14.2329 14.75 14.2004V6.75Z" stroke="#314158" stroke-width="1.5" stroke-linecap="round" stroke-linejoin="round"/>
</svg>

<svg fill="none" viewBox="0 0 24 24"><path stroke="currentColor" stroke-linecap="round" stroke-linejoin="round" stroke-width="1.5" d="M13.583 5.75H7.75a2 2 0 0 0-2 2v10a2 2 0 0 0 2 2h10a2 2 0 0 0 2-2v-5.833"/><path stroke="currentColor" stroke-linecap="round" stroke-linejoin="round" stroke-width="1.5" d="M14.75 6.75a1.5 1.5 0 0 1 3 0v7.45a.2.2 0 0 1-.026.093L16.25 16.75l-1.475-2.457a.2.2 0 0 1-.025-.093z"/></svg>
